X:146
T:The knotted cord
R:Reel
O:Ireland
B:Pubscouts
B:Ceol Rince 2 n229
D:Show the Ladies
S:Show the Ladies
Z:Transcription, chords:Mike Long
M:C|
L:1/8
K:G
"Am"A3B AE~E2|A2 (3(Bcd) eBdB|"G"G3A GEDE|"Em"~G2BG "G"dGBG|\
"Am"A3B AE~E2|A2 (3(Bcd) eBdB|
"G"G2 (3(B^cd) efge|[1 "Em"dBGA "G"BAdB:|[2 "Em"dBGA BAA2\
|:"Am"ea~a2 ea~a2|eaa^g a=ged|"G"eg~g2 eggf|
gfga gedg|\
"Am"ea~a2 ea~a2|eaa^g a=ged|"G"~B3d gaba|[1 "Em"gedB BA~A2:|[2 "Em"gedB "G"BAdB|]
